X: 20181
T: GIPSY QUADRILLES No 1.--l'Et\`e
%R: jig
B: W. Hamilton "Universal Tune-Book" Vol. 2 Glasgow 1846 p.18 #1
S: http://s3-eu-west-1.amazonaws.com/itma.dl.printmaterial/book_pdfs/hamiltonvol2web.pdf
Z: 2016 John Chambers <jc:trillian.mit.edu>
N: It might be better to change the key to G for the 2nd and 3rd strains.
M: 6/8
L: 1/8
K: D
% - - - - - - - - - - - - - - - - - - - - - - - - -
A |\
d2f a2f | d3 Adf | b2g egb | a2f dAF |\
GBd gf^e | fgf f=ed | cBA (f2e) | d3 d2 H|]
=c |\
B2=c d2g | f2e d2b | a2g f2e | dgf ed=c |\
B2=c d2=f | e2g =c'2b | a2^g b2a | =g3- "^D.C."g2 |]
=c |\
Bdg b2a | gfg a2f | d2e c2d | Bdd Add |\
GBd gdB | ceg Bdg | fed =c2A | GBd "^D.C."g2 |]
% - - - - - - - - - - - - - - - - - - - - - - - - -

%%sep 1 1 500
%%sep 1 1 500

